<?xml version="1.0"?>
<VTKFile type="ImageData" version="1.0" byte_order="LittleEndian" header_type="UInt64">
  <ImageData WholeExtent="0 3 0 2 0 0" Origin="0 0 0" Spacing="1 1 1">
    <Piece Extent="0 3 0 2 0 0">
      <PointData Scalars="density" Vectors="velocity">
        <DataArray type="Float64" Name="density" format="ascii">1 1.01 1.02 1.03 1.1 1.11 1.12 1.13 1.2 1.21 1.22 1.23</DataArray>
        <DataArray type="Float64" Name="velocity" NumberOfComponents="3" format="ascii">0 -0 0 0.1 -0 0 0.2 -0 0 0.30000000000000004 -0 0 0 -0.05 0 0.1 -0.05 0 0.2 -0.05 0 0.30000000000000004 -0.05 0 0 -0.1 0 0.1 -0.1 0 0.2 -0.1 0 0.30000000000000004 -0.1 0</DataArray>
        <DataArray type="UInt8" Name="boundary_kind" format="ascii">2 1 1 3 2 0 4 3 2 1 1 3</DataArray>
      </PointData>
      <CellData/>
    </Piece>
  </ImageData>
</VTKFile>
