<?xml version="1.0"?>
<VTKFile type="ImageData" version="1.0" byte_order="LittleEndian" header_type="UInt64">
  <ImageData WholeExtent="0 3 0 2 0 0" Origin="0 0 0" Spacing="1 1 1">
    <Piece Extent="0 3 0 2 0 0">
      <PointData Scalars="density" Vectors="velocity">
        <DataArray type="Float64" Name="density" format="ascii">1.035 1.045 1.055 1.065 1.135 1.145 1.155 1.1649999999999998 1.2349999999999999 1.2449999999999999 1.255 1.265</DataArray>
        <DataArray type="Float64" Name="velocity" NumberOfComponents="3" format="ascii">0.35 -0 0 0.44999999999999996 -0 0 0.55 -0 0 0.65 -0 0 0.35 -0.05 0 0.44999999999999996 -0.05 0 0.55 -0.05 0 0.65 -0.05 0 0.35 -0.1 0 0.44999999999999996 -0.1 0 0.55 -0.1 0 0.65 -0.1 0</DataArray>
        <DataArray type="UInt8" Name="boundary_kind" format="ascii">2 1 1 3 2 0 4 3 2 1 1 3</DataArray>
      </PointData>
      <CellData/>
    </Piece>
  </ImageData>
</VTKFile>
